X: 1
T: Quadril - Snapsen
S: Ur Lars Fornanders dans- och notbok
O: Döderhultsvik, Småland
R: Kadrilj
B: http://www.smus.se/earkiv/fmk/browselarge.php?lang=sw&katalogid=M+145&bildnr=00007
M: 2/4
L: 1/16
K: F
AB|:c2f2 e2f2|g^fga g2ga|b2bg e2ef|gfed cBAB|c2f2 e2f2|
g^fga g2ga|b2ba g2ge|1 g4 f2 AB:|2 g4 f2z2|]
[K:Dm]
|:a2ab a2ag|gfef d2ef|e2e2 a2e2|gfef defg|a2ab a2ag|gfef d2ef|e2e2 a2^c2|e4 d4:|
[K:F]
f4 c2a2|f4 c2a2|g2g2 c'2e2|gfef c2a2|f4 c2a2|f4 c2a2|g2g2 c'2e2|g4 f2z2|]

